X:1
T:Vocalise No 1
T:Vocalise No 1
T:Franz Abt (1819-1885)
T:by Mutopia-2019/07/24-2247 - Public Domain
C:Franz Abt (1819-1885)
Z:by Mutopia-2019/07/24-2247 - Public Domain
%%score { 1 | 2 } { ( 3 5 ) | 4 }
L:1/8
Q:1/4=80
M:4/4
K:C
V:1 treble nm="Voice"
V:2 bass 
V:3 treble nm="Piano"
V:5 treble 
V:4 bass 
V:1
"^Moderato" (!>!E4!>(! D4 | !breath!C8)!>)! |!<(! (D4 E2 F2!<)! | !>!E4) z4 |!p!!<(! (G4 A4!<)! | %5
w: Mi re|do|re mi fa|mi|sol la|
 !breath!B8) |!>(! (A4 G2 ^F2!>)! | G4) z4 | (G4 A2 B2 | !breath!c6) (BA |!>(! G4 F4!>)! | E4) z4 | %12
w: si|la sol fa|sol|sol la si|do si la|sol fa|mi|
!<(! (E2 D2 E2 F2!<)! | !breath!G8) |!>(! (G2 F2 E2 D2!>)! | C8) |] %16
w: mi re mi fa|sol|sol fa mi re|do|
V:2
 (!>!E,4!>(! D,4 | !breath!C,8)!>)! |!<(! (D,4 E,2 F,2!<)! | !>!E,4) z4 |!p!!<(! (G,4 A,4!<)! | %5
 !breath!B,8) |!>(! (A,4 G,2 ^F,2!>)! | G,4) z4 | (G,4 A,2 B,2 | C6) (B,A, |!>(! G,4 F,4!>)! | %11
 E,4) z4 |!<(! (E,2 D,2 E,2 F,2!<)! | !breath!G,8) |!>(!!>(! (G,2 F,2 E,2 D,2!>)!!>)! | C,8) |] %16
V:3
 ([CE]2 G,2 [F,D]2 G,2) | [E,C]2 E,2 G,2 C2 | ([B,D]2 G,2 [CE]2 [DF]2 | [CE]2 G,2 C2 E2) | %4
 ([EG]2 C2 [GA]2 E2) | ([GB]2 D2 G2 B2) | ([CA]4 [B,G]2 [_B,^F]2 | [B,G]4) z4 | %8
 ([B,FG]2 G,2 [DFG]2 G,2 | [CEG]2 G,2 C2 E2) | (G2 B,2 D2 F2 | E2 E,2 C2 E2) | E2 D2 E2 [A,DF]2 | %13
 (G2 G,2 C2 E2) | ([B,G]2 [A,F]2 [G,E]2 [F,D]2 | [E,C]8) |] %16
V:4
 [C,,C,]8- | [C,,C,]8 | (G,,8 | C,4) z4 | (D,4 ^C,4 | D,8) | D,,2 D,2 D,,2 D,2 | %7
 G,,2 B,,2 D,2 G,2 | G,,8 | G,,8 | (G,,4 ^G,,4 | A,,8) | (F,,2 F,2 E,2 D,2 | [G,,E,]8) | G,,8 | %15
 [C,,G,,]8 |] %16
V:5
 x8 | x8 | x8 | x8 | x8 | x8 | x8 | x8 | x8 | x8 | x8 | x8 | [A,C]6 x2 | x8 | x8 | x8 |] %16

